Automatic/src/svg/bluetooth.svg

<svg xmlns="http://www.w3.org/2000/svg" xml:space="preserve" width="224" height="224"><defs><clipPath id="a" clipPathUnits="userSpaceOnUse"><path d="M0 256h256V0H0Z"/></clipPath></defs><path d="M0 0h-168v-168H0V-4zm-4-164h-160V-4H-4Z" style="fill:#fff;fill-opacity:1;fill-rule:nonzero;stroke:none" transform="matrix(1.33333 0 0 -1.33333 224 0)"/><g clip-path="url(#a)" transform="matrix(1.33333 0 0 -1.33333 -58.667 282.667)"><path d="M0 0c-33.172 0-56-15.718-56-76.089C-56-136.282-33.172-152 0-152s56 15.718 56 76.089C56-15.718 33.172 0 0 0m0-3.996c17.308 0 29.193-4.445 37.406-13.991C47.227-29.402 52-48.349 52-75.911c0-27.644-4.774-46.643-14.597-58.082-8.208-9.56-20.092-14.011-37.403-14.011-17.308 0-29.194 4.445-37.406 13.991C-47.226-122.598-52-103.65-52-76.089c0 27.644 4.774 46.643 14.597 58.082C-29.196-8.448-17.311-3.996 0-3.996" style="fill:#fff;fill-opacity:1;fill-rule:nonzero;stroke:none" transform="translate(128 204)"/><path d="M0 0v22.211l11.08-11.022Zm0 47.819V70.03l11.08-10.84Zm-12 51.32V47.335l-23.808 23.718L-44 62.792l28-27.653-28-27.653 8.192-8.26L-12 22.942v-51.803l40 40-24 24 24 24zM-4-9.724l6.842 6.91L13.923 8.375l2.807 2.836-2.829 2.815L2.82 25.047-4 31.832zm0 47.707 6.864 7.044 11.081 11.371 2.786 2.859-2.854 2.792-11.08 10.84L-4 79.539zm-4 51.499 30.343-30.343L1.171 37.967l-2.828-2.828 2.828-2.828 21.172-21.172L-8-19.204v51.777l-6.823-6.797-20.968-20.887-2.546 2.568 25.148 24.836 2.881 2.846-2.881 2.846-25.148 24.836 2.546 2.569 20.968-20.888L-8 37.705v9.63z" style="fill:#fff;fill-opacity:1;fill-rule:nonzero;stroke:none" transform="translate(136.04 92.944)"/></g></svg>

<?xml version="1.0" encoding="UTF-8" standalone="no"?>
<svg
   xmlns:dc="http://purl.org/dc/elements/1.1/"
   xmlns:cc="http://creativecommons.org/ns#"
   xmlns:rdf="http://www.w3.org/1999/02/22-rdf-syntax-ns#"
   xmlns:svg="http://www.w3.org/2000/svg"
   xmlns="http://www.w3.org/2000/svg"
   viewBox="0 0 224 224"
   height="224"
   width="224"
   xml:space="preserve"
   id="svg2"
   version="1.1"><metadata
     id="metadata8"><rdf:RDF><cc:Work
         rdf:about=""><dc:format>image/svg+xml</dc:format><dc:type
           rdf:resource="http://purl.org/dc/dcmitype/StillImage" /></cc:Work></rdf:RDF></metadata><defs
     id="defs6"><clipPath
       id="clipPath22"
       clipPathUnits="userSpaceOnUse"><path
         id="path20"
         d="M 0,256 H 256 V 0 H 0 Z" /></clipPath></defs><g
     transform="matrix(1.3333333,0,0,-1.3333333,-58.666665,282.66666)"
     id="g10"><g
       transform="translate(212,212)"
       id="g12"><path
         id="path14"
         style="fill:#ffffff;fill-opacity:1;fill-rule:nonzero;stroke:none"
         d="m 0,0 h -4 -160 -4 v -4 -160 -4 h 4 160 4 v 4 160 z M -4,-164 H -164 V -4 H -4 Z" /></g><g
       id="g16"><g
         clip-path="url(#clipPath22)"
         id="g18"><g
           transform="translate(128,204)"
           id="g24"><path
             id="path26"
             style="fill:#ffffff;fill-opacity:1;fill-rule:nonzero;stroke:none"
             d="M 0,0 C -33.172,0 -56,-15.718 -56,-76.089 -56,-136.282 -33.172,-152 0,-152 c 33.172,0 56,15.718 56,76.089 C 56,-15.718 33.172,0 0,0 m 0,-3.996 c 17.308,0 29.193,-4.445 37.406,-13.991 C 47.227,-29.402 52,-48.349 52,-75.911 c 0,-27.644 -4.774,-46.643 -14.597,-58.082 -8.208,-9.56 -20.092,-14.011 -37.403,-14.011 -17.308,0 -29.194,4.445 -37.406,13.991 -9.82,11.415 -14.594,30.363 -14.594,57.924 0,27.644 4.774,46.643 14.597,58.082 8.207,9.559 20.092,14.011 37.403,14.011" /></g><g
           transform="translate(136.0391,92.9443)"
           id="g28"><path
             id="path30"
             style="fill:#ffffff;fill-opacity:1;fill-rule:nonzero;stroke:none"
             d="M 0,0 V 22.211 L 11.08,11.189 Z M 0,47.819 V 70.03 L 11.08,59.19 Z m -12,51.32 V 47.335 L -35.808,71.053 -44,62.792 -16,35.139 -44,7.486 -35.808,-0.774 -12,22.942 v -51.803 l 40,40 -24,24 24,24 z M -4,-9.724 2.842,-2.814 13.923,8.375 16.73,11.211 13.901,14.026 2.82,25.047 -4,31.832 V 22.211 0 -9.724 m 0,47.707 6.864,7.044 11.081,11.371 2.786,2.859 -2.854,2.792 L 2.797,72.889 -4,79.539 V 70.03 47.819 37.983 M -8,89.482 22.343,59.139 1.171,37.967 -1.657,35.139 1.171,32.311 22.343,11.139 -8,-19.204 v 42.146 9.631 l -6.823,-6.797 -20.968,-20.887 -2.546,2.568 25.148,24.836 2.881,2.846 -2.881,2.846 -25.148,24.836 2.546,2.569 L -14.823,44.502 -8,37.705 v 9.63 z" /></g></g></g></g></svg>
